X: 8309
T: Corrie Man, The
R: reel
M: 4/4
K: Adorian
|:A2 BA GEEG|DEGA BAAG|A2 BA GEEd|1 e2 dB BAAG:|2 e2 dB BAAB||
|:d2 e2 GGGE|d2 e2 BAAB|d2 e2 GGGE|1 DEGA BAAB:|2 DEGA BAAG||

